!!!Rep U0020a
!!!Isim(Name): Akşamlar Oldu Gene
!!!Yore(Region): Şanlıurfa
!!!Makam: Re Hicaz
!!!Arizalar(Accidentals): b-2 e-
!!!Usul: 4/4, Serbest
**kern	**Dcent
*staff1	*.
=1-	=1-
*clefG2	*.
*k[b-e-]	*.
*M4/4	*.
8g	0
8a	0
8b-	50
8cc	0
8dd	0
16ee-	0
16ff	0
16ee-	0
16dd	0
8cc	0
=2	=2
8dd	0
16ee-	0
16ff	0
16ee-	0
16dd	0
8cc	0
8.dd	0
16dd	0
16dd	0
16dd	0
8dd	0
=3:!	=3:!
!!linebreak:default
8gg	0
8ff#	0
8gg	0
8ee-	0
8ff#	0
8dd	0
8ee-	0
8cc	0
=4	=4
8dd	0
16ee-	0
16ff#	0
16ee-	0
16dd	0
8cc	0
8.dd	0
16dd	0
16dd	0
16dd	0
8dd	0
=5	=5
!!linebreak:default
8gg	0
8ff#	0
8gg	0
8ee-	0
8ff#	0
8dd	0
8ee-	0
8cc	0
=6	=6
8dd	0
16ee-	0
16ff#	0
16ee-	0
16dd	0
8cc	0
2dd	0
=7	=7
*MX/X	*.
16ggQ	0
16ggQ	0
16ff#Q	0
16ggQ	0
4ggQ;	0
!!linebreak:default
=8	=8
*M4/4	*.
16ff#	0
16gg	0
16gg	0
16gg	0
16gg	0
16gg	0
8gg	0
16r	.
16gg	0
8gg	0
8gg	0
8r	.
=9!:	=9!:
8ff#	0
8gg	0
16aa	0
16bb-	0
16aa	0
16gg	0
16ff#	0
16gg	0
8ff#	0
16gg	0
16aa	0
16gg	0
16ff#	0
=10	=10
!!linebreak:default
16ee-	0
16ff#	0
8ee-	0
16ff#	0
16gg	0
16ff#	0
16ee-	0
16dd	0
16ee-	0
8dd	0
8ee-	0
8dd	0
=11:!	=11:!
8ff#	0
16gg	0
16aa	0
16ff#	0
16gg	0
16ee-	0
16ff#	0
2dd	0
=12	=12
*MX/X	*.
16ggQ	0
16ggQ	0
16ff#Q	0
16ggQ	0
4ggQ;	0
=	=
*-	*-
!! Uzun Hava Database
!! 
!! Sertan Senturk, Parag Chordia & Erdal Tugcular
!! Georgia Tech Center for Music Technology, 2011
